packages/sources/icons/src/vitamix/chrono.svg

<svg width="24" height="24" viewBox="0 0 24 24" fill="none" xmlns="http://www.w3.org/2000/svg">
<path fill-rule="evenodd" clip-rule="evenodd" d="M9 5.81241V3C9 2.63337 9.26506 2.32048 9.6267 2.26021L14.1267 1.51021C14.5838 1.43402 15 1.78655 15 2.25V5.81241C18.073 7.01252 20.25 10.002 20.25 13.5C20.25 18.0564 16.5563 21.75 12 21.75C7.44365 21.75 3.75 18.0564 3.75 13.5C3.75 10.002 5.92698 7.01252 9 5.81241ZM10.5 5.38605C10.9864 5.2967 11.4878 5.25001 12 5.25001C12.5122 5.25001 13.0136 5.2967 13.5 5.38605V3.13536L10.5 3.63536V5.38605ZM11.25 14.25V9.75C11.25 9.33579 11.5858 9 12 9C12.4142 9 12.75 9.33579 12.75 9.75V12.4393L15.2197 9.96967C15.5126 9.67678 15.9874 9.67678 16.2803 9.96967C16.5732 10.2626 16.5732 10.7374 16.2803 11.0303L12.5303 14.7803C12.2374 15.0732 11.7626 15.0732 11.4697 14.7803C11.3232 14.6339 11.25 14.4419 11.25 14.25ZM12 20.25C15.7279 20.25 18.75 17.2279 18.75 13.5C18.75 9.77208 15.7279 6.75 12 6.75C8.27208 6.75 5.25 9.77208 5.25 13.5C5.25 17.2279 8.27208 20.25 12 20.25Z" fill="#001018"/>
</svg>

<svg width="24" height="24" fill="none" xmlns="http://www.w3.org/2000/svg"><path fill-rule="evenodd" clip-rule="evenodd" d="M9 5.812V3a.75.75 0 0 1 .627-.74l4.5-.75a.75.75 0 0 1 .873.74v3.562a8.25 8.25 0 1 1-6 0zm1.5-.426a8.297 8.297 0 0 1 3 0v-2.25l-3 .5v1.75zm.75 8.864v-4.5a.75.75 0 0 1 1.5 0v2.69l2.47-2.47a.75.75 0 1 1 1.06 1.06l-3.75 3.75a.75.75 0 0 1-1.28-.53zm.75 6a6.75 6.75 0 1 0 0-13.5 6.75 6.75 0 0 0 0 13.5z" fill="#001018"/></svg>
